svg/ionicons/document-text-sharp.svg

<svg xmlns="http://www.w3.org/2000/svg" width="512" height="512" viewBox="0 0 512 512"><path d="M272 41.69V188a4 4 0 004 4h146.31a2 2 0 001.42-3.41L275.41 40.27a2 2 0 00-3.41 1.42"/><path d="M248 224a8 8 0 01-8-8V32H92a12 12 0 00-12 12v424a12 12 0 0012 12h328a12 12 0 0012-12V224Zm104 160H160v-32h192Zm0-80H160v-32h192Z"/></svg>

<svg xmlns="http://www.w3.org/2000/svg" width="512" height="512" viewBox="0 0 512 512"><path d="M272,41.69V188a4,4,0,0,0,4,4H422.31a2,2,0,0,0,1.42-3.41L275.41,40.27A2,2,0,0,0,272,41.69Z"/><path d="M248,224a8,8,0,0,1-8-8V32H92A12,12,0,0,0,80,44V468a12,12,0,0,0,12,12H420a12,12,0,0,0,12-12V224ZM352,384H160V352H352Zm0-80H160V272H352Z"/></svg>
